-----BEGIN PGP SIGNED MESSAGE-----
Hash: SHA512

jade-client==1.0.41 \
    --hash=sha256:68e386510269750b4f2427541007e9abbd8c04617de95a46954d2ae5100d5f6a \
    --hash=sha256:9364f2740d6515e409e6b1e1e840e7f161b8782f222bc7bf8ebba2683a31f7da
-----BEGIN PGP SIGNATURE-----

iQIzBAEBCgAdFiEE5syRf0Pzb8CbvMYE9xwiw9sfcicFAmqIOkcACgkQ9xwiw9sf
cicdPQ//Zlm5EEqKfRkgHA3gSekD92PfcmVLq4LNd/pSRhrbSve3AT0OQj3/nh/0
fDQWJlOVaVNLyMDntOzMF8mi9cjToonlpLgZCJnHLTNEnsFL6JXPMTLBT+4xWuk8
wIwSu/L92NOGPmmPApSAySakr0rRGRPXyg7LHVzIeQGzPhzm9qa+5gYmy2OqAKXG
j2aqYtZ0CZ5BI0sTfp8yWvgIXYuy8uaxxQyi7LvbHULlq9MY9wTdAK72eyXE0QrU
jlmevoLWfRy7ouhFrQB6PoeYXkFAG8vNvg5KijoLaEIwe/VRaQBGwsaKM4EfM4aM
Rsw82cFQz+xZGmfH7i4OvVUD7UCdgpxfSgLVFMkWoAexWvImom49lAPmgkQ4lB0O
En/ysRp2963jsJQ7Uu+OoFtAlMEILTaCRzaGCrr1ybc3FwkNX9Pt5S8CoqYshnOP
ILOusOE7Slt9ldCOJCetBiUcO31+Hmpxzm7c+l3Vam9S2uZG+8K9nEC6wapPxj/O
bMEu/vo+P0XnQyVV2+boOp/ff2S3Ln0PlYRBh7lgLGyJCg9PVl+dc5GIpsAbEYd6
PFMaH/F1ejnQChHGBJfb4hsfite+WHTJuSSIGNlF1naer/zOcGYYZ4hCJur110Ru
xgsWPckmd9jmLOk0eh0iWZEEWAgwXOTAitsLkZlwNcP+H/QiKCc=
=kPVH
-----END PGP SIGNATURE-----
